X:1
T:Cowboy’s Carnival
T:Cowboy’s Carnival
T:Walter L. Rose
T:C. W. Byron, arr. by James E. Thomas, 1900
T:Public Domain Courtesy of the Cyber Hymnal™
T:Public Domain Courtesy of the Cyber Hymnal™
C:Walter L. Rose
Z:Public Domain
Z:Courtesy of the Cyber Hymnal™
%%score ( 1 2 ) ( 3 4 )
L:1/8
Q:1/4=95
M:4/4
K:G
V:1 treble 
V:2 treble 
V:3 bass 
V:4 bass 
V:1
 [DB][Dc] | ([Gd][Gd]) [Gd]>[Ge] [Gd]2 [DB]>[DG] | [EA]>[EA] [EG]>[CE] [B,D]2 ([B,D][B,D]) | %3
w: 1.~I’ve been|think- * ing to- day as my|thoughts be- gan to stray; Yo- mem-|
w: 2.~May we|lift~our * voic- es high till the|glor- ious by and by, And known|
w: 3.~As we|look~up- * on the plain to the|cow- boys who have fain While rag-|
 [DG]>[DG] [DG]>[DG] [DB]>[DB] [DA]>[^CG] | [DA]6 [DB]>[Dc] | [Gd]>[Gd] [Gd]>[Ge] [Gd]2 [DB]>[DG] | %6
w: o- ry to me’s worth more than gold;|As you ride|up- on the plain midst the sun-|
w: by all thro’ God’s own brand of love;|For His prop-|er- ty we are, and He’ll know|
w: ing storm and light- ning flash- es by;|We will meet|to part no more on that hap-|
 [EA]>[EA] [EG]>[CE] [B,D]2 [B,D][DG] | [DG]>[DG] [DG]>[DA] [GB]>[GB] [DA]>[DA] | [DG]6 || %9
w: shine and the rain, You’ll be round-|ed up with- in the Mas- ter’s fold.||
w: us from a- far, And will round|us up in glo- ry by and by.|We’ll|
w: py gold- en shore When we’re round-|ed up in glo- ry by and by.||
"^Refrain" [DB]>[Dc] | [Gd]>[Gd] [Gd]>[Gd] [Ge]>[Gd] [GB]>[Gc] | d6 [DG]>[DG] | %12
w: |||
w: be round-|ed up in glo- ry by and by;|We’ll be round-|
w: |||
 [GB]>[GB] [GB]>[GB] [GB]>[Gd] G>[GB] | A6 [GB]>[Gc] | [Gd]<[Gd] [Gd]>[Gd] !fermata![Gd]2 | %15
w: |||
w: ed up in glo- ry by and by;|When the mill-|ing time is o’er, And|
w: |||
 [DB]>[DB] | [Ec]2 [Ec]>[Ec] !fermata![Ge]2 !fermata![Gg][Ge]/ | %17
w: ||
w: we stam-|pede no more, We’ll be round-|
w: ||
 [Gd]<[Gd] [Gd][Dc] [DB]<[DG] [DA]>[DA] | G6 D2 |] %19
w: ||
w: ed up in glo- ry by and by.||
w: ||
V:2
 x2 | x8 | x8 | x8 | x8 | x8 | x8 | x8 | x6 || x2 | x8 | (G2 F>F G2) x2 | x6 G3/2 x/ | %13
 (F2 E>E F2) x2 | x6 | x2 | x15/2 | x8 | D2 E>E x4 |] %19
V:3
 G,[G,A,] | ([G,B,][G,B,]) [G,B,]>[G,C] [G,B,]2 G,>[G,B,] | [C,C]>[C,C] [C,C]>[E,G,] G,2 G,2 | %3
 [G,B,]>[G,B,] [G,B,]>[G,B,] G,>G, [F,A,]>[E,A,] | [D,F,]6 G,>[G,A,] | %5
 [G,B,]>[G,B,] [G,B,]>[G,C] [G,B,]2 [G,D]>[B,,D] | [C,C]>[C,C] [C,C]>[E,G,] G,2 G,[G,B,] | %7
 [G,B,]>[G,B,] [G,B,]>[G,C] [D,D]>[D,D] [D,C]>[D,C] | [G,B,]6 || G,>[G,A,] | %10
 [G,B,]>[G,B,] [G,B,]>[G,B,] [G,C]>[G,B,] G,>[G,A,] | %11
 ([G,B,]2 [D,A,]>[D,A,] [G,B,]2) [G,B,]>[G,B,] | %12
 [G,D]>[G,D] [G,D]>[G,D] [G,D]>[G,B,] [G,B,]>[G,D] | ([D,D]2 [A,,^C]>[A,,C] [D,D]2) [G,D]>[G,E] | %14
 [G,B,]<[G,B,] [G,B,]<[G,B,] !fermata![G,B,]2 | G,>G, | %16
 [C,G,]2 [C,G,]>[C,G,] !fermata![C,C]2 !fermata![C,E][C,C]/ | %17
 [D,B,]<[D,B,] [D,B,][D,A,] [D,G,]<[D,B,] [D,C]>[D,C] | (B,2 C>C B,2) x2 |] %19
V:4
 G, x | x6 G,3/2 x/ | x4 G,2 G,2 | x4 G,>G, x2 | x6 G,3/2 x/ | x8 | x4 G,2 G, x | x8 | x6 || %9
 G,3/2 x/ | x6 G,3/2 x/ | x8 | x8 | x8 | x6 | G,>G, | x15/2 | x8 | G,6 x2 |] %19

